public/assets/icons/file-document.svg

<svg width="44" height="44" viewBox="0 0 44 44" fill="none" xmlns="http://www.w3.org/2000/svg">
<path d="M33.462 9.72048C33.666 10.041 33.3166 10.4144 32.9462 10.3302C32.2216 10.1144 31.4199 10.0065 30.6028 10.0065H25.3796C25.2224 10.0065 25.0743 9.93254 24.9799 9.80685L23.1257 7.3394C22.9086 7.03175 23.1138 6.58398 23.4904 6.58398H27.7353C30.1419 6.58398 32.2617 7.83386 33.462 9.72048Z" fill="#56B8FF"/>
<path d="M34.5498 13.5832C33.8869 13.1052 33.1315 12.7507 32.3144 12.5502C31.7594 12.3961 31.189 12.319 30.6032 12.319H24.8682C23.974 12.319 23.9123 12.2419 23.4344 11.6098L21.2761 8.74232C20.274 7.40107 19.4877 6.58398 16.9748 6.58398H13.3982C9.63648 6.58398 6.58398 9.63648 6.58398 13.3982V30.6032C6.58398 34.3648 9.63648 37.4173 13.3982 37.4173H30.6032C34.3648 37.4173 37.4173 34.3648 37.4173 30.6032V19.1332C37.4173 16.8361 36.2919 14.8165 34.5498 13.5832ZM25.6852 28.6915H18.3007C17.6994 28.6915 17.2369 28.2136 17.2369 27.6123C17.2369 27.0265 17.6994 26.5332 18.3007 26.5332H25.6852C26.2865 26.5332 26.7644 27.0265 26.7644 27.6123C26.7644 28.2136 26.2865 28.6915 25.6852 28.6915Z" fill="#56B8FF"/>
</svg>

<svg xmlns="http://www.w3.org/2000/svg" width="44" height="44" fill="none"><path fill="#56B8FF" d="M33.462 9.72c.204.321-.145.694-.516.61a8.3 8.3 0 0 0-2.343-.323H25.38a.5.5 0 0 1-.4-.2l-1.854-2.468c-.217-.307-.012-.755.364-.755h4.245a6.78 6.78 0 0 1 5.727 3.136"/><path fill="#56B8FF" d="M34.55 13.583a6.4 6.4 0 0 0-2.236-1.033 6.4 6.4 0 0 0-1.71-.231h-5.736c-.894 0-.956-.077-1.434-.71l-2.158-2.867c-1.002-1.34-1.788-2.158-4.301-2.158h-3.577a6.816 6.816 0 0 0-6.814 6.814v17.205a6.816 6.816 0 0 0 6.814 6.814h17.205a6.816 6.816 0 0 0 6.814-6.814v-11.47a6.77 6.77 0 0 0-2.867-5.55m-8.865 15.109h-7.384a1.06 1.06 0 0 1-1.064-1.08c0-.585.462-1.079 1.064-1.079h7.384c.602 0 1.08.493 1.08 1.08 0 .6-.479 1.079-1.08 1.079"/></svg>
